; generated by PrusaSlicer 2.2.0+ on 2020-11-27 at 18:09:28 UTC

; 

; external perimeters extrusion width = 0.60mm
; perimeters extrusion width = 0.50mm
; infill extrusion width = 0.50mm
; solid infill extrusion width = 0.50mm
; top infill extrusion width = 0.45mm
; first layer extrusion width = 0.42mm

M73 P0 R251
M73 Q0 S251
M201 X1000 Y1000 Z1000 E5000 ; sets maximum accelerations, mm/sec^2
M203 X200 Y200 Z12 E120 ; sets maximum feedrates, mm/sec
M204 P1250 R1250 T1250 ; sets acceleration (P, T) and retract acceleration (R), mm/sec^2
M205 X8.00 Y8.00 Z0.40 E4.50 ; sets the jerk limits, mm/sec
M205 S0 T0 ; sets the minimum extruding and travel feed rate, mm/sec
M107
M862.3 P "MK3S" ; printer model check
M862.1 P0.4 ; nozzle diameter check
M115 U3.8.1 ; tell printer latest fw version
G90 ; use absolute coordinates
M83 ; extruder relative mode
M104 S230 ; set extruder temp
M140 S85 ; set bed temp
M190 S85 ; wait for bed temp
M109 S230 ; wait for extruder temp
G28 W ; home all without mesh bed level
G80 ; mesh bed leveling
G1 Y-3.0 F1000.0 ; go outside print area
G92 E0.0
G1 X60.0 E9.0 F1000.0 ; intro line
M73 Q0 S251
M73 P0 R251
G1 X100.0 E12.5 F1000.0 ; intro line
G92 E0.0
M221 S95
G21 ; set units to millimeters
G90 ; use absolute coordinates
M83 ; use relative distances for extrusion
M900 K0.08 ; Filament gcode LA 1.5
M900 K45 ; Filament gcode LA 1.0
;BEFORE_LAYER_CHANGE
G92 E0.0
;0.2


G1 E-1.40000 F2100.00000
G1 Z0.200 F10800.000
;AFTER_LAYER_CHANGE
;0.2
G1 Z0.400
G1 X50.635 Y34.896
G1 Z0.200
G1 E1.40000 F2100.00000
M204 S1000
G1 F1200.000
G1 X52.176 Y33.044 E0.07554
G1 X53.384 Y31.869 E0.05285
G1 X54.907 Y30.626 E0.06163
G1 X56.766 Y29.533 E0.06759
G1 X58.713 Y28.764 E0.06565
G1 X59.806 Y28.441 E0.03573
G1 X61.865 Y28.100 E0.06544
G1 X63.856 Y28.075 E0.06244
G1 X64.929 Y28.175 E0.03379
G1 X66.849 Y28.534 E0.06125
G1 X69.494 Y29.537 E0.08867
G1 X186.409 Y94.918 E4.20005
G1 X190.185 Y97.303 E0.14003
G1 X193.744 Y100.000 E0.14003
G1 X197.060 Y102.991 E0.14003
G1 X200.100 Y106.243 E0.13955
G1 X202.872 Y109.768 E0.14062
G1 X205.333 Y113.517 E0.14062
G1 X207.458 Y117.450 E0.14015
G1 X209.481 Y122.229 E0.16271
G1 X210.658 Y125.764 E0.11682
G1 X211.637 Y129.725 E0.12792
G1 X212.356 Y134.136 E0.14014
G1 X212.713 Y138.959 E0.15163
G1 X212.640 Y143.447 E0.14074
G1 X212.185 Y147.899 E0.14031
G1 X211.192 Y152.922 E0.16055
G1 X210.156 Y156.576 E0.11907
G1 X208.761 Y160.341 E0.12592
G1 X206.881 Y164.396 E0.14013
G1 X204.436 Y168.642 E0.15363
G1 X201.857 Y172.306 E0.14050
G1 X198.880 Y175.838 E0.14482
G1 X195.390 Y179.280 E0.15367
G1 X191.923 Y182.140 E0.14092
G1 X188.655 Y184.428 E0.12511
G1 X185.362 Y186.367 E0.11982
G1 X180.900 Y188.533 E0.15551
G1 X176.578 Y190.155 E0.14473
G1 X172.260 Y191.361 E0.14059
G1 X167.476 Y192.240 E0.15250
G1 X163.027 Y192.658 E0.14010
G1 X158.974 Y192.713 E0.12710
G1 X155.224 Y192.468 E0.11782
G1 X150.119 Y191.722 E0.16177
G1 X145.767 Y190.659 E0.14047
G1 X141.518 Y189.227 E0.14059
G1 X137.124 Y187.294 E0.15051
G1 X133.204 Y185.140 E0.14022
G1 X129.771 Y182.875 E0.12898
G1 X126.859 Y180.601 E0.11582
G1 X126.023 Y179.906 E0.03411
G1 X123.009 Y177.078 E0.12957
G1 X120.130 Y173.895 E0.13458
G1 X117.305 Y170.188 E0.14612
G1 X114.911 Y166.397 E0.14059
G1 X49.274 Y48.933 E4.21901
G1 X48.544 Y46.884 E0.06818
G1 X48.179 Y44.954 E0.06159
G1 X48.076 Y43.910 E0.03290
G1 X48.101 Y41.847 E0.06467
G1 X48.532 Y39.416 E0.07743
G1 X49.237 Y37.415 E0.06650
G1 X49.566 Y36.704 E0.02456
G1 X50.604 Y34.947 E0.06398
G1 F8640.000
G1 X52.176 Y33.044 E-0.57000
G1 X53.384 Y31.869 E-0.38920
G1 X54.629 Y30.854 E-0.37080
G1 E-0.07000 F2100.00000
G1 Z0.400 F10800.000
G1 X53.233 Y36.706
G1 Z0.200
G1 E1.40000 F2100.00000
G1 F1200.000
G1 X54.477 Y35.218 E0.06082
G1 X55.218 Y34.477 E0.03284
G1 X56.706 Y33.232 E0.06083
G1 X58.368 Y32.272 E0.06017
G1 X60.257 Y31.586 E0.06302
G1 X62.148 Y31.254 E0.06020
G1 X64.110 Y31.254 E0.06152
G1 X66.040 Y31.596 E0.06147
G1 X67.855 Y32.256 E0.06055
G1 X69.554 Y33.235 E0.06149
G1 X71.078 Y34.514 E0.06238
G1 X133.362 Y96.798 E2.76177
G1 X133.890 Y97.205 E0.02090
G1 X134.552 Y97.484 E0.02251
G1 X135.111 Y97.563 E0.01770
G1 X135.262 Y97.585 E0.00481
G1 X135.975 Y97.501 E0.02251
G1 X136.581 Y97.264 E0.02039
G1 X140.386 Y95.377 E0.13318
G1 X144.291 Y93.839 E0.13160
G1 X148.314 Y92.639 E0.13160
G1 X152.423 Y91.787 E0.13160
G1 X156.591 Y91.287 E0.13160
G1 X160.785 Y91.145 E0.13160
G1 X164.977 Y91.361 E0.13160
G1 X169.135 Y91.933 E0.13160
G1 X173.229 Y92.857 E0.13160
G1 X177.230 Y94.127 E0.13160
G1 X181.108 Y95.733 E0.13160
G1 X184.834 Y97.664 E0.13160
G1 X188.383 Y99.905 E0.13160
G1 X191.728 Y102.440 E0.13160
G1 X194.845 Y105.251 E0.13160
G1 X197.710 Y108.318 E0.13160
G1 X200.304 Y111.617 E0.13160
G1 X202.608 Y115.126 E0.13160
G1 X204.604 Y118.818 E0.13158
G1 X206.324 Y122.790 E0.13573
G1 X207.618 Y126.644 E0.12747
G1 X208.615 Y130.722 E0.13161
G1 X209.260 Y134.869 E0.13160
G1 X209.550 Y139.056 E0.13160
G1 X209.481 Y143.252 E0.13160
G1 X209.056 Y147.428 E0.13158
G1 X208.245 Y151.680 E0.13572
G1 X207.148 Y155.594 E0.12747
G1 X205.679 Y159.526 E0.13161
G1 X203.880 Y163.319 E0.13160
G1 X201.765 Y166.944 E0.13160
G1 X199.349 Y170.376 E0.13160
G1 X196.649 Y173.589 E0.13159
G1 X193.589 Y176.649 E0.13571
G1 X190.376 Y179.349 E0.13159
G1 X186.944 Y181.765 E0.13160
G1 X183.319 Y183.880 E0.13160
G1 X179.526 Y185.679 E0.13161
G1 X175.719 Y187.106 E0.12747
G1 X171.552 Y188.276 E0.13572
G1 X167.428 Y189.056 E0.13158
G1 X163.252 Y189.481 E0.13160
G1 X159.056 Y189.550 E0.13160
G1 X154.869 Y189.260 E0.13160
G1 X150.721 Y188.615 E0.13161
G1 X146.771 Y187.653 E0.12747
G1 X142.666 Y186.278 E0.13573
G1 X138.818 Y184.604 E0.13158
G1 X135.126 Y182.608 E0.13160
G1 X131.617 Y180.304 E0.13160
G1 X128.318 Y177.710 E0.13160
G1 X125.251 Y174.844 E0.13161
G1 X122.526 Y171.827 E0.12748
G1 X119.904 Y168.383 E0.13573
G1 X117.664 Y164.834 E0.13158
G1 X115.733 Y161.108 E0.13160
G1 X114.127 Y157.230 E0.13160
G1 X112.857 Y153.229 E0.13160
G1 X111.933 Y149.135 E0.13160
G1 X111.361 Y144.977 E0.13160
G1 X111.145 Y140.785 E0.13160
G1 X111.281 Y136.722 E0.12748
G1 X111.787 Y132.423 E0.13573
G1 X112.639 Y128.314 E0.13158
G1 X113.839 Y124.291 E0.13160
G1 X115.377 Y120.386 E0.13160
G1 X117.264 Y116.581 E0.13318
G1 X117.501 Y115.975 E0.02039
G1 X117.585 Y115.262 E0.02251
G1 X117.505 Y114.704 E0.01770
G1 X117.484 Y114.552 E0.00481
G1 X117.205 Y113.890 E0.02250
G1 X116.798 Y113.362 E0.02090
G1 X54.514 Y51.078 E2.76177
G1 X53.235 Y49.554 E0.06238
G1 X52.256 Y47.855 E0.06150
G1 X51.596 Y46.040 E0.06054
G1 X51.260 Y44.150 E0.06022
G1 X51.254 Y42.148 E0.06274
G1 X51.613 Y40.166 E0.06318
G1 X52.253 Y38.409 E0.05863
G1 X53.203 Y36.758 E0.05972
G1 X52.876 Y36.570 F10800.000
G1 F1200.000
G1 X52.922 Y36.489 E0.00292
G1 X54.199 Y34.963 E0.06237
G1 X54.963 Y34.199 E0.03389
G1 X56.489 Y32.922 E0.06238
G1 X58.208 Y31.929 E0.06224
G1 X60.159 Y31.220 E0.06509
G1 X62.115 Y30.877 E0.06226
G1 X64.143 Y30.877 E0.06359
G1 X66.138 Y31.230 E0.06354
G1 X68.015 Y31.913 E0.06261
G1 X69.771 Y32.925 E0.06356
G1 X71.333 Y34.236 E0.06394
G1 X133.612 Y96.514 E2.76153
G1 X134.082 Y96.876 E0.01861
G1 X134.653 Y97.117 E0.01944
G1 X135.164 Y97.190 E0.01617
G1 X135.267 Y97.204 E0.00328
G1 X135.883 Y97.132 E0.01944
G1 X136.428 Y96.919 E0.01835
G1 X140.233 Y95.032 E0.13317
G1 X144.168 Y93.482 E0.13261
G1 X148.221 Y92.273 E0.13261
G1 X152.362 Y91.414 E0.13261
M73 Q0 S250
G1 X156.562 Y90.911 E0.13261
M73 P0 R250
G1 X160.789 Y90.768 E0.13261
G1 X165.013 Y90.985 E0.13261
G1 X169.202 Y91.561 E0.13261
G1 X173.328 Y92.493 E0.13261
G1 X177.359 Y93.772 E0.13261
G1 X181.267 Y95.391 E0.13261
G1 X185.022 Y97.336 E0.13261
G1 X188.598 Y99.594 E0.13261
G1 X191.969 Y102.149 E0.13261
G1 X195.109 Y104.982 E0.13261
G1 X197.997 Y108.072 E0.13261
G1 X200.611 Y111.397 E0.13261
G1 X202.932 Y114.933 E0.13261
G1 X204.943 Y118.653 E0.13260
G1 X206.676 Y122.655 E0.13674
G1 X207.981 Y126.539 E0.12847
G1 X208.985 Y130.648 E0.13261
G1 X209.635 Y134.827 E0.13261
G1 X209.927 Y139.046 E0.13261
G1 X209.858 Y143.275 E0.13261
G1 X209.429 Y147.482 E0.13260
G1 X208.613 Y151.766 E0.13674
G1 X207.506 Y155.711 E0.12847
G1 X206.026 Y159.673 E0.13261
G1 X204.214 Y163.495 E0.13261
G1 X202.083 Y167.148 E0.13261
G1 X199.648 Y170.606 E0.13261
G1 X196.928 Y173.844 E0.13260
G1 X193.844 Y176.928 E0.13674
G1 X190.606 Y179.648 E0.13260
G1 X187.148 Y182.083 E0.13261
G1 X183.495 Y184.214 E0.13261
G1 X179.673 Y186.026 E0.13261
G1 X175.837 Y187.465 E0.12847
G1 X171.638 Y188.644 E0.13674
G1 X167.482 Y189.429 E0.13260
G1 X163.275 Y189.858 E0.13261
G1 X159.046 Y189.927 E0.13261
G1 X154.827 Y189.635 E0.13261
G1 X150.648 Y188.985 E0.13261
G1 X146.666 Y188.016 E0.12847
G1 X142.531 Y186.630 E0.13674
G1 X138.653 Y184.943 E0.13260
G1 X134.933 Y182.932 E0.13261
G1 X131.397 Y180.611 E0.13261
G1 X128.072 Y177.997 E0.13261
G1 X124.982 Y175.109 E0.13261
G1 X122.235 Y172.068 E0.12847
G1 X119.594 Y168.598 E0.13674
G1 X117.336 Y165.022 E0.13260
G1 X115.391 Y161.267 E0.13261
G1 X113.772 Y157.359 E0.13261
G1 X112.493 Y153.328 E0.13261
G1 X111.561 Y149.202 E0.13261
G1 X110.985 Y145.013 E0.13261
G1 X110.768 Y140.789 E0.13261
G1 X110.905 Y136.693 E0.12848
G1 X111.414 Y132.362 E0.13674
G1 X112.273 Y128.221 E0.13260
G1 X113.482 Y124.168 E0.13261
G1 X115.032 Y120.233 E0.13261
G1 X116.919 Y116.428 E0.13317
G1 X117.132 Y115.883 E0.01835
G1 X117.204 Y115.267 E0.01944
G1 X117.132 Y114.757 E0.01617
G1 X117.117 Y114.653 E0.00328
G1 X116.876 Y114.082 E0.01944
G1 X116.514 Y113.612 E0.01861
G1 X54.236 Y51.333 E2.76153
G1 X52.925 Y49.771 E0.06394
G1 X51.913 Y48.015 E0.06357
G1 X51.230 Y46.139 E0.06259
G1 X50.883 Y44.183 E0.06227
G1 X50.877 Y42.115 E0.06485
G1 X51.248 Y40.067 E0.06526
G1 X51.910 Y38.249 E0.06066
G1 X52.846 Y36.622 E0.05887
G1 X52.969 Y36.567 F10800.000
G1 F8640.000
G1 X52.922 Y36.489 E-0.03533
G1 X54.199 Y34.963 E-0.45935
G1 X54.963 Y34.199 E-0.24959
G1 X56.489 Y32.922 E-0.45939
G1 X56.963 Y32.649 E-0.12635
G1 E-0.07000 F2100.00000
G1 Z0.400 F10800.000
G1 X197.772 Y108.580
G1 Z0.200
G1 E1.40000 F2100.00000
G1 F1200.000
G1 X194.643 Y105.450 E0.13905
G1 X191.547 Y102.658 E0.13094
G1 X190.593 Y101.935 E0.03762
G1 X198.727 Y110.069 E0.36139
G1 X200.075 Y111.783 E0.06848
G1 X200.395 Y112.271 E0.01837
G1 X188.385 Y100.261 E0.53359
G1 X188.222 Y100.137 E0.00644
G1 X186.879 Y99.289 E0.04989
G1 X201.417 Y113.827 E0.64587
G1 X202.410 Y115.354 E0.05724
G1 X185.429 Y98.374 E0.75442
G1 X184.694 Y97.909 E0.02732
G1 X184.147 Y97.626 E0.01933
G1 X203.039 Y116.518 E0.83930
G1 X203.667 Y117.681 E0.04154
G1 X183.039 Y97.052 E0.91649
G1 X181.930 Y96.477 E0.03922
G1 X204.296 Y118.844 E0.99369
G1 X204.723 Y119.805 E0.03302
G1 X180.851 Y95.933 E1.06057
G1 X179.939 Y95.555 E0.03101
G1 X205.131 Y120.747 E1.11922
G1 X205.539 Y121.689 E0.03226
G1 X179.027 Y95.177 E1.17787
G1 X178.115 Y94.800 E0.03101
G1 X205.947 Y122.632 E1.23651
G1 X206.059 Y122.891 E0.00890
G1 X206.255 Y123.474 E0.01931
G1 X177.203 Y94.422 E1.29073
G1 X176.410 Y94.163 E0.02619
G1 X206.525 Y124.279 E1.33795
G1 X206.796 Y125.083 E0.02666
G1 X175.627 Y93.915 E1.38474
G1 X174.845 Y93.667 E0.02580
G1 X207.066 Y125.888 E1.43152
G1 X207.336 Y126.692 E0.02666
G1 X174.062 Y93.418 E1.47830
G1 X173.279 Y93.170 E0.02580
G1 X207.513 Y127.403 E1.52092
G1 X207.685 Y128.110 E0.02287
G1 X172.574 Y92.999 E1.55991
G1 X171.884 Y92.843 E0.02223
G1 X207.858 Y128.817 E1.59824
G1 X208.031 Y129.525 E0.02287
G1 X171.194 Y92.688 E1.63658
G1 X170.504 Y92.532 E0.02223
G1 X208.204 Y130.232 E1.67492
M73 Q0 S249
M73 P0 R249
G1 X208.360 Y130.922 E0.02223
G1 X169.814 Y92.376 E1.71250
G1 X169.124 Y92.220 E0.02223
G1 X208.458 Y131.554 E1.74753
G1 X208.557 Y132.187 E0.02012
G1 X168.500 Y92.131 E1.77961
G1 X167.881 Y92.046 E0.01965
G1 X208.655 Y132.820 E1.81151
G1 X208.753 Y133.453 E0.02012
G1 X167.261 Y91.961 E1.84341
G1 X166.642 Y91.875 E0.01965
G1 X208.852 Y134.086 E1.87531
G1 X208.950 Y134.718 E0.02012
G1 X166.022 Y91.790 E1.90720
G1 X165.403 Y91.705 E0.01965
G1 X209.007 Y135.309 E1.93724
G1 X209.047 Y135.883 E0.01808
G1 X164.798 Y91.635 E1.96586
G1 X164.235 Y91.606 E0.01772
G1 X209.086 Y136.457 E1.99265
G1 X209.126 Y137.031 E0.01808
G1 X163.672 Y91.577 E2.01943
G1 X163.108 Y91.548 E0.01772
G1 X209.166 Y137.605 E2.04622
G1 X209.206 Y138.179 E0.01808
G1 X162.545 Y91.519 E2.07301
G1 X161.982 Y91.490 E0.01772
G1 X209.245 Y138.753 E2.09980
G1 X209.263 Y139.305 E0.01734
G1 X161.419 Y91.461 E2.12561
G1 X160.855 Y91.432 E0.01772
G1 X209.254 Y139.831 E2.15025
G1 X209.246 Y140.357 E0.01652
G1 X160.333 Y91.443 E2.17310
G1 X159.816 Y91.461 E0.01624
G1 X209.237 Y140.882 E2.19568
G1 X209.229 Y141.408 E0.01652
G1 X159.299 Y91.479 E2.21825
M73 Q1 S248
M73 P1 R248
G1 X158.782 Y91.496 E0.01624
G1 X209.220 Y141.934 E2.24083
G1 X209.211 Y142.460 E0.01652
G1 X158.265 Y91.514 E2.26341
G1 X157.749 Y91.531 E0.01624
G1 X209.203 Y142.985 E2.28599
G1 X209.173 Y143.490 E0.01587
G1 X157.232 Y91.549 E2.30762
G1 X156.715 Y91.566 E0.01624
G1 X209.124 Y143.975 E2.32838
G1 X209.074 Y144.460 E0.01531
G1 X156.230 Y91.615 E2.34774
G1 X155.753 Y91.673 E0.01510
G1 X209.025 Y144.944 E2.36674
G1 X208.975 Y145.429 E0.01531
G1 X155.276 Y91.730 E2.38574
G1 X154.799 Y91.787 E0.01510
G1 X208.926 Y145.914 E2.40475
G1 X208.876 Y146.399 E0.01531
G1 X154.322 Y91.844 E2.42375
G1 X153.844 Y91.901 E0.01510
G1 X208.827 Y146.884 E2.44275
G1 X208.778 Y147.369 E0.01531
G1 X153.367 Y91.958 E2.46175
G1 X152.890 Y92.016 E0.01510
G1 X208.693 Y147.819 E2.47921
G1 X208.608 Y148.268 E0.01435
G1 X152.417 Y92.077 E2.49643
G1 X151.974 Y92.169 E0.01420
G1 X208.522 Y148.716 E2.51229
G1 X208.437 Y149.165 E0.01435
G1 X151.532 Y92.260 E2.52814
M73 Q1 S247
M73 P1 R247
G1 X151.089 Y92.352 E0.01420
G1 X208.351 Y149.614 E2.54400
G1 X208.266 Y150.063 E0.01435
G1 X150.647 Y92.444 E2.55986
G1 X150.204 Y92.536 E0.01420
G1 X208.180 Y150.511 E2.57572
G1 X208.094 Y150.960 E0.01435
G1 X149.762 Y92.628 E2.59158
G1 X149.319 Y92.719 E0.01420
G1 X208.009 Y151.409 E2.60744
G1 X207.906 Y151.841 E0.01394
G1 X148.877 Y92.811 E2.62254
G1 X148.434 Y92.903 E0.01420
G1 X207.789 Y152.258 E2.63700
G1 X207.672 Y152.675 E0.01362
G1 X148.019 Y93.022 E2.65025
G1 X147.608 Y93.145 E0.01349
G1 X207.555 Y153.093 E2.66334
G1 X207.438 Y153.510 E0.01362
G1 X147.196 Y93.268 E2.67642
G1 X146.785 Y93.390 E0.01349
G1 X207.321 Y153.927 E2.68951
G1 X207.204 Y154.344 E0.01362
G1 X146.373 Y93.513 E2.70260
G1 X145.961 Y93.636 E0.01349
G1 X207.087 Y154.762 E2.71568
G1 X206.970 Y155.179 E0.01362
G1 X145.550 Y93.759 E2.72877
G1 X145.138 Y93.881 E0.01349
G1 X206.847 Y155.590 E2.74159
M73 Q2 S246
M73 P2 R246
G1 X206.702 Y155.979 E0.01305
G1 X144.727 Y94.004 E2.75341
G1 X144.320 Y94.132 E0.01339
G1 X206.557 Y156.368 E2.76503
G1 X206.411 Y156.757 E0.01305
G1 X143.937 Y94.283 E2.77561
G1 X143.553 Y94.433 E0.01294
G1 X206.266 Y157.146 E2.78618
G1 X206.121 Y157.535 E0.01305
G1 X143.170 Y94.584 E2.79676
G1 X142.787 Y94.735 E0.01294
G1 X205.975 Y157.924 E2.80733
G1 X205.830 Y158.313 E0.01305
G1 X142.403 Y94.886 E2.81791
G1 X142.020 Y95.037 E0.01294
G1 X205.685 Y158.702 E2.82848
G1 X205.539 Y159.091 E0.01305
G1 X141.637 Y95.188 E2.83906
G1 X141.253 Y95.339 E0.01294
G1 X205.390 Y159.476 E2.84944
G1 X205.218 Y159.838 E0.01260
G1 X140.870 Y95.490 E2.85883
G1 X140.488 Y95.642 E0.01293
G1 X205.046 Y160.201 E2.86818
G1 X204.874 Y160.563 E0.01260
G1 X140.130 Y95.819 E2.87642
G1 X139.773 Y95.996 E0.01252
G1 X204.702 Y160.926 E2.88465
M73 Q2 S245
M73 P2 R245
G1 X204.530 Y161.288 E0.01260
G1 X139.416 Y96.174 E2.89288
G1 X139.059 Y96.351 E0.01252
G1 X204.358 Y161.650 E2.90112
G1 X204.187 Y162.013 E0.01260
G1 X138.702 Y96.528 E2.90935
G1 X138.344 Y96.705 E0.01252
G1 X204.015 Y162.375 E2.91758
G1 X203.843 Y162.738 E0.01260
G1 X137.987 Y96.882 E2.92582
G1 X137.630 Y97.059 E0.01253
G1 X203.671 Y163.100 E2.93405
G1 X203.480 Y163.444 E0.01234
G1 X137.273 Y97.236 E2.94144
G1 X136.916 Y97.413 E0.01252
G1 X203.283 Y163.781 E2.94856
G1 X203.086 Y164.118 E0.01227
G1 X136.548 Y97.580 E2.95613
G1 X136.164 Y97.731 E0.01295
G1 X202.889 Y164.456 E2.96444
G1 X202.693 Y164.793 E0.01227
G1 X135.716 Y97.816 E2.97563
G1 X135.231 Y97.866 E0.01531
G1 X202.496 Y165.131 E2.98843
